lib/assets/icons/svg/outlined-navigation-arrowright.svg

<svg xmlns="http://www.w3.org/2000/svg" viewBox="0 0 24 24"><path d="M14.354 17.249a.5.5 0 0 1-.35-.15l-4.71-4.73a.468.468 0 0 1-.15-.35.584.584 0 0 1 .15-.41l4.71-4.71a.5.5 0 0 1 .71 0c.19.194.19.506 0 .7l-4.39 4.39 4.39 4.39c.19.194.19.506 0 .7a.512.512 0 0 1-.36.17z"/></svg>

<svg viewBox="0 0 24 24" xmlns="http://www.w3.org/2000/svg">
  <path  d="M 14.354 17.249 C 14.222 17.247 14.096 17.193 14.004 17.099 L 9.294 12.369 C 9.197 12.279 9.142 12.152 9.144 12.019 C 9.139 11.868 9.193 11.721 9.294 11.609 L 14.004 6.899 C 14.199 6.702 14.518 6.702 14.714 6.899 C 14.904 7.093 14.904 7.405 14.714 7.599 L 10.324 11.989 L 14.714 16.379 C 14.904 16.573 14.904 16.885 14.714 17.079 C 14.622 17.182 14.492 17.243 14.354 17.249 Z"/>
</svg>
